X: 1
T: The Coolin
R: waltz
M: 3/4
L: 1/8
K: Cmaj
G A/B/| (c2 B/c/) (d>B)| c2 E2 (3CEG|(c>B) cd/e/ d>c|
c2B2 c>B|A2 Bc (d/c/) (B/A/)|G2 (EG) cG|B/A/G/F/ EC {D/E/} DC |
C4 G>F| (E>D) (C>D) (E>^F)|(G>^F G>A) B>G|(c>B) (cd/e/) d>c|
(c2 B2) c>B|(A2> Bc) (d/c/) (B/A/)|G2 (EG) cG|B/A/G/F/ EC {D/E/} DC | C4||


Tune 1815	Setting 15255

